svg/star-half.svg

<svg xmlns="http://www.w3.org/2000/svg" viewBox="0 0 64 61" enable-background="new 0 0 64 61"><style type="text/css">.st0{fill:#343434;}</style><title>star-half</title><desc>Created with Sketch.</desc><path class="st0" d="M47.7 38.7l15.9-15.5-22-3.2-9.8-20-9.8 19.9-21.3 3.1-.8.1 15.9 15.5-3.8 21.9.7-.4 19-10 19.7 10.4-3.7-21.8zm-15.7 7.1v-36.3l7 14.1 16.1 2.3-11.7 11.4 2.7 16-14.1-7.5z"/></svg>

<?xml version="1.0" encoding="utf-8"?>
<!-- Generator: Adobe Illustrator 21.0.0, SVG Export Plug-In . SVG Version: 6.00 Build 0)  -->
<svg version="1.1" id="Layer_1" xmlns="http://www.w3.org/2000/svg" xmlns:xlink="http://www.w3.org/1999/xlink" x="0px" y="0px"
	 viewBox="0 0 64 61" style="enable-background:new 0 0 64 61;" xml:space="preserve">
<style type="text/css">
	.st0{fill:#343434;}
</style>
<title>star-half</title>
<desc>Created with Sketch.</desc>
<path class="st0" d="M47.7,38.7l15.9-15.5l-22-3.2L31.8,0L22,19.9L0.7,23l0,0l-0.8,0.1l15.9,15.5l-3.8,21.9l0.7-0.4l0,0l19-10
	l19.7,10.4L47.7,38.7z M32,45.8V9.5l7,14.1l16.1,2.3L43.4,37.3l2.7,16L32,45.8z"/>
</svg>
